X:12
T:Ap Shenkin. RH.010
T:Tempest,The,aka. RH.010
R:jig
S:Rev.R.Harrison’s MS,c1815,Cumbria
O:England
A:Temple Sowerby,Cumbria
Z:vmp.Simon Wilson. Review PJH, 2008.
M:6/8
L:1/8
Q:3/8=120
K:D
A/G/|\
F2F Fdc|B2B “tr”B>cd|A>BA AGF|FEE E>AG|!
F2F Fdc|B2B “tr”B>cd|A>BA GFE|D3″sic”dd:|!
d/e/|f2d e2c|”tr”d>cB AGF|G>AB AdF|FEE E2d/e/|!
f2d e2c|dcB edc|fed cdB|Adc BA” DC”G|]

